X:6736
T:Hanter Dro
C:Y. Dour 18
M:3/4
L:1/16
K:G
B2AB d2B2 A2G2|G2FG A2cB A4|\
B2AB d2B2 A2G2|A2cB A2B2 G4:|
|:B2AB d2e2 d2A2|GFGA B2cB A4|\
B2AB d2e2 d2B2|A2G2 AcBA G4:|


